X:255
T:Pinch of Snuff
R:reel
H:There are two other versions of this tune, #236 and #634.
N:There is a different tune by the same name, #441.
D:Chieftains Live.
D:Paddy Glackin: Ceol ar an bhFidil le Paddy Glackin.
Z:id:hn-reel-36
M:C|
K:D
F2DF E2DE|F2DF EFGE|F2DF E2DE|G2BG EFGE:|
|:DFAF BFAF|DFAF EA,CE|DFAF BFAF|G2BG EFGE:|
K:G
|:B2GB A2GA|B2GB ABcA|B2GB A2GA|c2ec ABcA:|
|:GBdB eBdB|GBdB ADFA|GBdB eBdB|c2ec ABcA:|
K:A
|:c2Ac B2AB|c2Ac BcdB|c2Ac B2AB|d2fd BcdB:|
|:Acec fcec|Acec BEGB|Acec fcec|d2fd BcdB:|
|:cdcB AGAF|ECC2 ECE=G|FDFA =GFGD|B,=G,G,2 B,G,B,D:|
